X:2320
T:Polska efter Niklas Larsson (EÖ7)
S:efter Niklas Larsson
B:EÖ, nr 7
O:Svarteborg, Bohuslän
R:Polska
Z:Nils L
M:3/4
L:1/8
K:G
V:1
(AB A)>G (3BGB | (3dBd (ga) b z/(f/ | (3g)fg (3aba (3gef | (3def (3gfg (3afa |
V:2 merge 
D2-D3/2
V:1
g2 [GG,]2 (3BGB | (3dBd g>a bf | (3gfg (3aba (3gef | (3dec [dD]4 ::
(Ad f)>a {/g}Tf2/e/f/ | g d/c/ (3BAB (3cAc | T(BA/B/) (3GAB cB | A>G (3FEF (F<A) |
A>d f>a {/g}Tf2/e/f/ | gd/c/ (3BAB (3cAc | TB>A (3GAB (3cAB | (3GAF [GG,]4 :|
(:musicend:)
(:music:)
